packages/axiom-materials/src/icon_svgs/form-resize.svg

<svg height="16" viewBox="0 0 16 16" width="16" xmlns="http://www.w3.org/2000/svg"><path d="m9.70710678 13.7071068c-.39052429.3905243-1.02368927.3905243-1.41421356 0s-.39052429-1.0236893 0-1.4142136l3.99999998-3.99999998c.3905243-.39052429 1.0236893-.39052429 1.4142136 0s.3905243 1.02368927 0 1.41421356zm2.58578642-11.41421358c.3905243-.39052429 1.0236893-.39052429 1.4142136 0s.3905243 1.02368927 0 1.41421356l-10.00000002 10.00000002c-.39052429.3905243-1.02368927.3905243-1.41421356 0s-.39052429-1.0236893 0-1.4142136z"/></svg>

<?xml version="1.0" encoding="UTF-8"?>
<svg width="16px" height="16px" viewBox="0 0 16 16" version="1.1" xmlns="http://www.w3.org/2000/svg" xmlns:xlink="http://www.w3.org/1999/xlink">
    <!-- Generator: Sketch 46.2 (44496) - http://www.bohemiancoding.com/sketch -->
    <title>Form Resize</title>
    <desc>Created with Sketch.</desc>
    <defs></defs>
    <g id="Page-1" stroke="none" stroke-width="1" fill="none" fill-rule="evenodd">
        <g id="Form-Resize" fill="#000000" fill-rule="nonzero">
            <path d="M9.70710678,13.7071068 C9.31658249,14.0976311 8.68341751,14.0976311 8.29289322,13.7071068 C7.90236893,13.3165825 7.90236893,12.6834175 8.29289322,12.2928932 L12.2928932,8.29289322 C12.6834175,7.90236893 13.3165825,7.90236893 13.7071068,8.29289322 C14.0976311,8.68341751 14.0976311,9.31658249 13.7071068,9.70710678 L9.70710678,13.7071068 Z M12.2928932,2.29289322 C12.6834175,1.90236893 13.3165825,1.90236893 13.7071068,2.29289322 C14.0976311,2.68341751 14.0976311,3.31658249 13.7071068,3.70710678 L3.70710678,13.7071068 C3.31658249,14.0976311 2.68341751,14.0976311 2.29289322,13.7071068 C1.90236893,13.3165825 1.90236893,12.6834175 2.29289322,12.2928932 L12.2928932,2.29289322 Z"></path>
        </g>
    </g>
</svg>
